X: 19
T: Maids Of Mount Kisco, The
C: Paddy Killoran
Z: jmeme
S: https://thesession.org/tunes/432#setting52640
R: reel
M: 4/4
L: 1/8
K: Edor
|:E3E FEE/E/D|B,EE/E/E FDED|B,DDB, DB,A,D|B,DDB, DB,A,D|
B,EE/E/E EFED|B,EE/E/E FEFA|Bcdf e/e/edB|AGFG G/G/GFG:|
E3A AGFE|DAFD ADF/E/D|EE/E/EF ADFA|B/c/dde d/c/BAF|
EFGE A/B/AG/F/E|DAFD ADFD|EE/E/EF ADFA|BAcB dBAd|
Bee/e/e egfe|dBAG FGA=c|Bee/e/e egfe|dBAB dABd|
egfe d/d/ddB|B/B/AFE Ddcd|ABB/B/B BAdB|AGFg g/g/gfg|
e4 e3d|d/d/BAg g/g/gfg|egfg egfe|dBAB dABd|
egfe d/d/ddB|B/B/AFE Ddcd|ABB/B/B BAdB|AGFG G/G/GFG||

%-------------------- TUNE SEPARATOR --------------------%

